assets/img/svg/boxicons/bx-water.svg

<svg xmlns="http://www.w3.org/2000/svg" width="24" height="24" viewBox="0 0 24 24"><path d="M5.996 9c1.413 0 2.16-.747 2.705-1.293.49-.49.731-.707 1.292-.707s.802.217 1.292.707C11.83 8.253 12.577 9 13.991 9c1.415 0 2.163-.747 2.71-1.293.491-.49.732-.707 1.295-.707s.804.217 1.295.707C19.837 8.253 20.585 9 22 9V7c-.563 0-.804-.217-1.295-.707C20.159 5.747 19.411 5 17.996 5s-2.162.747-2.709 1.292c-.491.491-.731.708-1.296.708-.562 0-.802-.217-1.292-.707C12.154 5.747 11.407 5 9.993 5s-2.161.747-2.706 1.293c-.49.49-.73.707-1.291.707s-.801-.217-1.291-.707C4.16 5.747 3.413 5 2 5v2c.561 0 .801.217 1.291.707C3.836 8.253 4.583 9 5.996 9zm0 5c1.413 0 2.16-.747 2.705-1.293.49-.49.731-.707 1.292-.707s.802.217 1.292.707c.545.546 1.292 1.293 2.706 1.293 1.415 0 2.163-.747 2.71-1.293.491-.49.732-.707 1.295-.707s.804.217 1.295.707C19.837 13.253 20.585 14 22 14v-2c-.563 0-.804-.217-1.295-.707-.546-.546-1.294-1.293-2.709-1.293s-2.162.747-2.709 1.292c-.491.491-.731.708-1.296.708-.562 0-.802-.217-1.292-.707C12.154 10.747 11.407 10 9.993 10s-2.161.747-2.706 1.293c-.49.49-.73.707-1.291.707s-.801-.217-1.291-.707C4.16 10.747 3.413 10 2 10v2c.561 0 .801.217 1.291.707C3.836 13.253 4.583 14 5.996 14zm0 5c1.413 0 2.16-.747 2.705-1.293.49-.49.731-.707 1.292-.707s.802.217 1.292.707c.545.546 1.292 1.293 2.706 1.293 1.415 0 2.163-.747 2.71-1.293.491-.49.732-.707 1.295-.707s.804.217 1.295.707C19.837 18.253 20.585 19 22 19v-2c-.563 0-.804-.217-1.295-.707-.546-.546-1.294-1.293-2.709-1.293s-2.162.747-2.709 1.292c-.491.491-.731.708-1.296.708-.562 0-.802-.217-1.292-.707C12.154 15.747 11.407 15 9.993 15s-2.161.747-2.706 1.293c-.49.49-.73.707-1.291.707s-.801-.217-1.291-.707C4.16 15.747 3.413 15 2 15v2c.561 0 .801.217 1.291.707C3.836 18.253 4.583 19 5.996 19z"/></svg>

<svg xmlns="http://www.w3.org/2000/svg" width="24" height="24" viewBox="0 0 24 24"><path d="M17.996 5c-1.415 0-2.162.747-2.709 1.292C14.796 6.783 14.556 7 13.991 7c-.562 0-.802-.217-1.292-.707C12.154 5.747 11.407 5 9.993 5S7.832 5.747 7.287 6.293C6.797 6.783 6.557 7 5.996 7S5.195 6.783 4.705 6.293C4.16 5.747 3.413 5 2 5v2c.561 0 .801.217 1.291.707C3.836 8.253 4.583 9 5.996 9s2.16-.747 2.705-1.293C9.191 7.217 9.432 7 9.993 7s.802.217 1.292.707C11.83 8.253 12.577 9 13.991 9c1.415 0 2.163-.747 2.71-1.293C17.192 7.217 17.433 7 17.996 7s.804.217 1.295.707C19.837 8.253 20.585 9 22 9V7c-.563 0-.804-.217-1.295-.707C20.159 5.747 19.411 5 17.996 5zM17.996 10c-1.415 0-2.162.747-2.709 1.292C14.796 11.783 14.556 12 13.991 12c-.562 0-.802-.217-1.292-.707C12.154 10.747 11.407 10 9.993 10s-2.161.747-2.706 1.293C6.797 11.783 6.557 12 5.996 12s-.801-.217-1.291-.707C4.16 10.747 3.413 10 2 10v2c.561 0 .801.217 1.291.707C3.836 13.253 4.583 14 5.996 14s2.16-.747 2.705-1.293C9.191 12.217 9.432 12 9.993 12s.802.217 1.292.707C11.83 13.253 12.577 14 13.991 14c1.415 0 2.163-.747 2.71-1.293C17.192 12.217 17.433 12 17.996 12s.804.217 1.295.707C19.837 13.253 20.585 14 22 14v-2c-.563 0-.804-.217-1.295-.707C20.159 10.747 19.411 10 17.996 10zM17.996 15c-1.415 0-2.162.747-2.709 1.292C14.796 16.783 14.556 17 13.991 17c-.562 0-.802-.217-1.292-.707C12.154 15.747 11.407 15 9.993 15s-2.161.747-2.706 1.293C6.797 16.783 6.557 17 5.996 17s-.801-.217-1.291-.707C4.16 15.747 3.413 15 2 15v2c.561 0 .801.217 1.291.707C3.836 18.253 4.583 19 5.996 19s2.16-.747 2.705-1.293C9.191 17.217 9.432 17 9.993 17s.802.217 1.292.707C11.83 18.253 12.577 19 13.991 19c1.415 0 2.163-.747 2.71-1.293C17.192 17.217 17.433 17 17.996 17s.804.217 1.295.707C19.837 18.253 20.585 19 22 19v-2c-.563 0-.804-.217-1.295-.707C20.159 15.747 19.411 15 17.996 15z"/></svg>
